build/img/svg/phone.svg

<svg width="28" height="28" viewBox="0 0 28 28" fill="none" xmlns="http://www.w3.org/2000/svg">
<path d="M26.5 20.1501V23.9001C26.5015 24.2482 26.4301 24.5928 26.2907 24.9118C26.1512 25.2308 25.9467 25.5171 25.6901 25.7525C25.4336 25.9878 25.1308 26.167 24.801 26.2785C24.4712 26.39 24.1218 26.4315 23.775 26.4001C19.9286 25.9822 16.2338 24.6678 12.9875 22.5626C9.96732 20.6435 7.40671 18.0828 5.48754 15.0626C3.37501 11.8016 2.06034 8.08886 1.65004 4.22512C1.6188 3.87945 1.65988 3.53107 1.77066 3.20215C1.88145 2.87323 2.0595 2.57098 2.2935 2.31465C2.52749 2.05831 2.81229 1.85351 3.12978 1.71327C3.44726 1.57304 3.79046 1.50045 4.13754 1.50012H7.88754C8.49417 1.49415 9.08228 1.70897 9.54224 2.10454C10.0022 2.5001 10.3026 3.04943 10.3875 3.65012C10.5458 4.8502 10.8394 6.02853 11.2625 7.16262C11.4307 7.61003 11.4671 8.09626 11.3674 8.56372C11.2677 9.03118 11.0361 9.46026 10.7 9.80012L9.11254 11.3876C10.892 14.5171 13.4831 17.1082 16.6125 18.8876L18.2 17.3001C18.5399 16.964 18.969 16.7324 19.4364 16.6327C19.9039 16.533 20.3901 16.5694 20.8375 16.7376C21.9716 17.1608 23.15 17.4543 24.35 17.6126C24.9572 17.6983 25.5118 18.0041 25.9082 18.472C26.3046 18.9399 26.5152 19.5371 26.5 20.1501Z" stroke="white" stroke-width="2" stroke-linecap="round" stroke-linejoin="round"/>
</svg>

<svg width="28" height="28" fill="none" xmlns="http://www.w3.org/2000/svg"><path d="M26.5 20.15v3.75a2.5 2.5 0 01-2.725 2.5 24.737 24.737 0 01-10.787-3.837 24.375 24.375 0 01-7.5-7.5A24.737 24.737 0 011.65 4.225 2.5 2.5 0 014.138 1.5h3.75a2.5 2.5 0 012.5 2.15c.158 1.2.451 2.379.874 3.513A2.5 2.5 0 0110.7 9.8l-1.587 1.588a20 20 0 007.5 7.5L18.2 17.3a2.5 2.5 0 012.637-.562 16.12 16.12 0 003.513.875 2.5 2.5 0 012.15 2.537z" stroke="#fff" stroke-width="2" stroke-linecap="round" stroke-linejoin="round"/></svg>
